icons/art/art_fingerprint_xs_white.svg

<?xml version="1.0" encoding="UTF-8"?>
<svg width="64px" height="64px" viewBox="0 0 64 64" version="1.1" xmlns="http://www.w3.org/2000/svg" xmlns:xlink="http://www.w3.org/1999/xlink">
    <!-- Generator: Sketch 48.2 (47327) - http://www.bohemiancoding.com/sketch -->
    <title>art_fingerprint_xs_white</title>
    <desc>Created with Sketch.</desc>
    <defs></defs>
    <g id="set" stroke="none" stroke-width="1" fill="none" fill-rule="evenodd">
        <g id="Artboard-2" transform="translate(-161.000000, -49.000000)">
            <g id="icon_tool_fingerprint__m__white" transform="translate(161.000000, 49.000000)">
                <g id="Group">
                    <rect id="ph" x="0" y="0" width="64" height="64"></rect>
                    <path d="M47.6444931,39.3637505 C47.7663915,35.8286983 46.3645604,32.3545952 44.1703901,29.6118823 C40.6962871,25.2235417 34.6013695,23.1512697 29.1159437,23.8826598 C23.8133654,24.5531007 18.5717363,28.1491021 16.377566,33.0859854 C14.9757349,36.3162917 14.7319382,39.8513439 15.2195316,43.2644977 C16.1337693,49.4813136 19.3640756,55.149587 23.8743146,59.4769785 C25.1542473,60.695962 27.1046209,58.7455884 25.8246882,57.5266048 C22.0458393,53.8696543 19.2421772,49.2984661 18.1450921,44.1177862 C18.0231937,43.6911419 17.9622445,43.2644977 17.9012954,42.8988027 C17.9012954,42.8378535 17.9012954,42.7159551 17.8403462,42.6550059 C17.779397,42.2893109 17.9012954,42.9597518 17.8403462,42.5940568 C17.8403462,42.4112092 17.779397,42.1674125 17.779397,41.984565 C17.7184478,41.4360224 17.6574986,40.8265307 17.6574986,40.2779881 C17.6574986,39.0590046 17.779397,37.9009702 18.0231937,36.7429359 C18.5107871,34.4878164 19.6078723,32.4155444 21.1925508,30.8308658 C21.9848901,30.0385266 22.5943819,29.6118823 23.3867212,29.0023906 C24.4838063,28.2710005 25.5808915,27.6615087 26.8608242,27.2348645 C29.7863846,26.2596777 32.8338434,26.381576 35.6984547,27.2958137 C37.8316758,27.9662546 39.6601511,29.0633397 41.1229313,30.5870691 C41.9152706,31.3794084 42.3419148,31.927951 42.9514066,32.964087 C43.1952033,33.3297821 43.3780508,33.7564263 43.5608984,34.1830705 C43.6218475,34.3049689 43.6827967,34.365918 43.6827967,34.4878164 C43.8046951,34.7925623 43.6218475,34.3049689 43.7437459,34.6097147 C43.8046951,34.7925623 43.9265934,35.036359 43.9875426,35.2192065 C44.2313393,35.9505966 44.475136,36.6819867 44.5970343,37.474326 C44.5970343,37.6571735 44.6579835,37.7790719 44.6579835,37.9619194 C44.5970343,37.474326 44.6579835,37.9619194 44.6579835,38.0838178 C44.7189327,38.5714112 44.7189327,39.0590046 44.7189327,39.4856488 C44.840831,41.1922257 47.6444931,41.1922257 47.6444931,39.3637505 L47.6444931,39.3637505 L47.6444931,39.3637505 Z" id="Shape" fill="#FFFFFF"></path>
                    <path d="M29.8473338,39.2418521 C29.7863846,41.8626667 30.7006223,44.4834812 31.980555,46.7386007 C33.8090302,50.0298562 36.7345907,52.5897216 40.330592,53.6868068 C43.1342541,54.5400952 45.9379162,54.4181969 48.8634766,54.113451 C49.5948668,54.0525018 50.2653077,53.5039592 50.2653077,52.71162 C50.2653077,51.9802298 49.6558159,51.2488397 48.8634766,51.3097889 C46.4864588,51.5535856 44.1094409,51.7364331 41.9152706,51.1878906 C40.9400838,50.9440939 40.2696429,50.7002972 39.5382528,50.3346021 C39.1725577,50.1517546 38.8068626,49.9079579 38.4411676,49.7251103 C38.2583201,49.603212 38.1364217,49.4813136 37.9535742,49.4203645 C37.8316758,49.3594153 37.7707267,49.2984661 37.7097775,49.2375169 C37.6488283,49.1765678 37.6488283,49.1765678 37.7097775,49.2375169 C37.6488283,49.1765678 37.5878791,49.1765678 37.5878791,49.1156186 C36.9783874,48.6280252 36.3688956,48.0185334 35.8813022,47.4090417 C35.7594039,47.2871433 35.6375055,47.1042958 35.5156072,46.9823974 C35.6984547,47.165245 35.3327596,46.7386007 35.3327596,46.6776516 C35.0889629,46.3729057 34.9061154,46.0072106 34.6623187,45.7024647 C34.2966236,45.092973 33.9918778,44.4834812 33.6871319,43.8130403 C33.6871319,43.7520911 33.6261827,43.6911419 33.6261827,43.6301928 C33.7480811,43.9349386 33.6871319,43.7520911 33.6261827,43.6911419 C33.5652335,43.5082944 33.5042844,43.3863961 33.4433352,43.2035485 C33.3214368,42.8988027 33.2604876,42.5940568 33.1385893,42.2893109 C32.9557418,41.7407683 32.8338434,41.1922257 32.7119451,40.6436831 C32.7119451,40.582734 32.6509959,40.1560897 32.6509959,40.4608356 C32.7119451,40.7655815 32.6509959,40.3389373 32.6509959,40.2779881 L32.6509959,39.1809029 C32.6509959,37.474326 29.908283,37.474326 29.8473338,39.2418521 L29.8473338,39.2418521 L29.8473338,39.2418521 Z" id="Shape" fill="#FFFFFF"></path>
                    <path d="M7.90563052,24.309304 C7.9665797,24.1874057 8.02752887,24.1264565 8.14942722,24.0045582 C8.27132558,23.8826598 8.33227475,23.7607615 8.39322393,23.6388631 C8.4541731,23.5169648 8.69796981,23.2731681 8.39322393,23.6388631 C8.4541731,23.5169648 8.57607146,23.4560156 8.63702063,23.3341172 C9.42935992,22.3589304 10.3435976,21.3837436 11.2578352,20.469506 C12.6596662,19.1286241 13.8786497,18.1534373 15.4633283,17.1173013 C17.3527528,15.8983178 19.3640756,14.8621818 21.4363475,14.1307917 C23.8743146,13.2775032 26.43418,12.7289606 29.0549945,12.5461131 C30.2130289,12.4851639 31.3710632,12.4851639 32.4681484,12.5461131 C33.0166909,12.5461131 33.6261827,12.6070623 34.1747253,12.6070623 C34.4794712,12.6070623 34.8451662,12.6680115 35.1499121,12.7289606 C35.3327596,12.7289606 35.5156072,12.7899098 35.6984547,12.7899098 C36.0641497,12.850859 35.3937088,12.7289606 35.7594039,12.7899098 C35.8813022,12.7899098 36.0032006,12.7899098 36.0641497,12.850859 C37.892625,13.1556049 39.7211003,13.5822491 41.4886264,14.1917409 C46.7302555,16.0202161 51.423342,19.7381159 54.7755467,24.309304 C55.2021909,24.9187958 55.9945302,25.2235417 56.6649711,24.7968974 C57.2744629,24.4312024 57.5792088,23.5169648 57.1525646,22.907473 C53.8613091,18.3362848 49.5339176,14.6183851 44.3532376,12.3632656 C40.8791346,10.8395362 37.1612349,9.98624773 33.382386,9.8034002 C29.7863846,9.62055267 26.0684849,9.86434938 22.5943819,10.8395362 C18.0841429,12.1194689 13.9395989,14.4964867 10.4045467,17.5439455 C8.63702063,19.1286241 6.86949453,20.8961502 5.58956184,22.907473 C4.55342585,24.4312024 6.93044371,25.8330334 7.90563052,24.309304 L7.90563052,24.309304 L7.90563052,24.309304 Z" id="Shape" fill="#FFFFFF"></path>
                    <path d="M12.2939712,49.7860595 C11.6235302,48.1404318 11.2578352,46.4338548 10.9530893,44.6663288 C10.8921401,44.3006337 10.831191,43.8739895 10.7702418,43.5082944 C10.7702418,43.4473452 10.7092926,43.0816502 10.7702418,43.5082944 C10.7702418,43.3863961 10.7702418,43.3254469 10.7092926,43.2035485 C10.7092926,42.9597518 10.6483434,42.7159551 10.6483434,42.4721584 C10.5264451,41.5579208 10.5264451,40.6436831 10.5264451,39.6684963 C10.5264451,38.6933095 10.5873943,37.6571735 10.7092926,36.6819867 C10.7092926,36.5600884 10.7092926,36.43819 10.7702418,36.3162917 C10.7092926,36.6210375 10.7702418,36.2553425 10.7702418,36.1943933 C10.831191,35.9505966 10.831191,35.7067999 10.8921401,35.4630032 C11.0140385,34.9144606 11.0749877,34.365918 11.2578352,33.8783246 C11.8673269,31.6841543 12.5987171,29.9166282 13.9395989,28.0272038 C14.5490907,27.1739153 15.2804808,26.3206268 16.1337693,25.5282876 C17.1089561,24.6140499 18.0841429,23.8217106 19.2421772,23.0903205 C22.1067885,21.2618452 25.398044,19.9819126 28.8111978,19.6771667 C32.5290975,19.3114716 36.2469973,19.8600142 39.7211003,21.2008961 C42.4638132,22.2370321 44.9627294,23.8217106 46.9740522,25.9549318 C48.0711374,27.0520169 48.9244258,28.3319496 49.7167651,29.6728315 C50.1434093,30.4042216 50.5700536,31.1965609 50.9357486,31.9889002 C51.1185962,32.4155444 51.3623929,32.8421886 51.5452404,33.2688329 C51.423342,33.0250362 51.4842912,33.2078837 51.5452404,33.2688329 C51.7280879,33.6954771 51.8499863,34.1221213 51.9718846,34.5487656 C52.093783,34.9144606 52.1547321,35.2801557 52.2156813,35.6458507 C52.2766305,35.8286983 52.2766305,36.072495 52.3375797,36.3162917 C52.3375797,36.43819 52.3985288,36.5600884 52.3985288,36.6819867 C52.3375797,36.3162917 52.3985288,36.8648342 52.3985288,36.9257834 C52.459478,37.4133768 52.459478,37.9009702 52.459478,38.4495128 L52.459478,39.2418521 L52.459478,39.6684963 L52.459478,39.912293 C52.459478,39.7903947 52.459478,39.7903947 52.459478,39.912293 C52.2766305,41.1312766 52.0328338,41.8017175 51.3014437,42.7769043 C51.423342,42.5940568 51.1795453,42.9597518 51.1795453,42.9597518 C51.057647,43.0816502 50.9966978,43.1425994 50.8747994,43.2644977 C50.6919519,43.4473452 50.5091044,43.6301928 50.387206,43.6911419 C49.7777143,44.1787353 49.0463242,44.4834812 48.3149341,44.6663288 C46.7302555,45.1539222 44.9017802,45.0320238 43.3780508,44.2396845 C42.2200165,43.6301928 41.366728,42.7769043 40.7572363,41.61887 C40.6353379,41.3750733 40.5743887,41.2531749 40.4524904,40.8874799 C40.3915412,40.7046323 40.330592,40.4608356 40.330592,40.2779881 C40.2696429,40.0341914 40.0867953,39.546598 40.330592,40.0951406 C40.2086937,39.7903947 40.330592,39.3637505 40.2696429,39.0590046 C40.2696429,38.5714112 40.1477445,38.0838178 40.0867953,37.5352752 C38.7459135,30.8308658 29.1768929,28.7585939 24.8495014,33.7564263 C21.5582459,37.5352752 22.4724835,43.0816502 24.2400096,47.3480925 C26.2513324,52.2849757 30.0911305,56.185723 34.8451662,58.5627408 C36.3688956,59.3550801 38.0145234,59.9645719 39.6601511,60.5131145 C41.366728,61.061657 42.0981181,58.3798933 40.3915412,57.8313507 C37.4659808,56.8561639 34.4794712,55.4543329 32.1634025,53.5039592 C30.2130289,51.9192807 28.872147,50.2127037 27.6531635,48.0794826 C27.4093668,47.5918892 27.1655701,47.1042958 26.9217734,46.6167024 C26.799875,46.3729057 26.9827225,46.7386007 26.8608242,46.494804 C26.799875,46.3729057 26.7389258,46.2510073 26.7389258,46.1900581 C26.6170275,45.9462614 26.5560783,45.7024647 26.4951291,45.458668 C26.1903833,44.6053796 25.9465866,43.6911419 25.763739,42.7769043 C25.7027899,42.3502601 25.6418407,41.984565 25.5808915,41.61887 C25.5808915,41.4969716 25.5808915,41.4360224 25.5199423,41.3750733 C25.4589931,41.0703274 25.5199423,41.4969716 25.5199423,41.3750733 C25.5199423,41.1922257 25.4589931,41.0093782 25.4589931,40.8265307 C25.2761456,39.3028013 25.5199423,37.7790719 26.3122816,36.43819 C28.0188585,33.6345279 31.3710632,33.1469345 34.1747253,34.3049689 C35.2108613,34.7316131 36.1860481,35.4630032 36.7955398,36.43819 C37.52693,37.5962244 37.4659808,38.8761571 37.6488283,40.2779881 C37.7097775,40.6436831 37.6488283,40.3998864 37.6488283,40.3389373 C37.6488283,40.5217848 37.7097775,40.6436831 37.7097775,40.8265307 C37.7707267,41.0093782 37.7707267,41.2531749 37.8316758,41.4360224 C37.9535742,41.8626667 38.1364217,42.3502601 38.3192692,42.7159551 C38.5021168,43.1425994 38.8068626,43.6301928 39.1116085,43.9958878 C40.2696429,45.5196172 41.8543214,46.6167024 43.7437459,47.165245 C47.0350014,48.1404318 51.057647,47.2871433 53.3127665,44.6053796 C56.0554794,41.3141241 55.7507335,36.4991392 54.4708008,32.5983919 C53.6175124,30.0385266 52.1547321,27.6005595 50.5091044,25.5282876 C48.6806291,23.1512697 46.3645604,21.1399469 43.6827967,19.7381159 C36.7345907,16.0811653 28.3845536,15.5935719 21.2535,18.8848274 C16.3166168,21.1399469 12.0501745,24.979745 9.91695332,30.0385266 C8.27132558,33.9392738 7.78373217,38.2666653 8.2103764,42.5331076 C8.4541731,45.092973 8.94176651,47.6528384 9.79505497,50.0908054 C9.85600415,50.2127037 9.91695332,50.3346021 9.91695332,50.4565004 C10.2216992,51.1878906 10.831191,51.675484 11.6235302,51.4316873 C11.9892253,51.3707381 12.5987171,50.5174496 12.2939712,49.7860595 L12.2939712,49.7860595 L12.2939712,49.7860595 Z" id="Shape" fill="#FFFFFF"></path>
                    <path d="M15.4023791,9.49865432 C15.9509217,9.13295927 16.4994643,8.88916256 17.1089561,8.58441669 C17.4137019,8.46251833 17.6574986,8.34061998 17.9622445,8.15777246 C18.0231937,8.09682328 18.5107871,7.91397575 18.3279396,7.97492493 C18.1450921,8.09682328 18.4498379,7.91397575 18.4498379,7.91397575 C18.5717363,7.85302658 18.6936346,7.7920774 18.8764822,7.73112823 C19.6688214,7.42638235 20.5221099,7.12163647 21.3753984,6.87783976 C26.1903833,5.41505955 31.310114,4.98841531 36.3688956,5.71980542 C40.2696429,6.32929718 44.1094409,7.60922987 47.583544,9.37675597 C48.2539849,9.74245103 49.1072734,9.5596035 49.4729684,8.88916256 C49.8386635,8.27967081 49.6558159,7.30448399 48.985375,6.99973812 C42.8904574,3.95227933 36.0641497,2.30665158 29.1768929,2.73329581 C24.727603,3.03804169 20.4002116,4.07417768 16.377566,5.90265295 C15.5852267,6.26834801 14.7928874,6.63404306 14.0614973,7.12163647 C13.4520055,7.5482807 13.1472596,8.34061998 13.5739039,9.01106092 C13.8786497,9.62055267 14.7928874,9.92529855 15.4023791,9.49865432 L15.4023791,9.49865432 L15.4023791,9.49865432 Z" id="Shape" fill="#FFFFFF"></path>
                </g>
            </g>
        </g>
    </g>
</svg>

<svg width="64" height="64" viewBox="0 0 64 64" xmlns="http://www.w3.org/2000/svg"><g fill="none" fill-rule="evenodd"><path d="M0 0h64v64H0z"/><path d="M47.644 39.364c.122-3.535-1.28-7.01-3.474-9.752-3.474-4.388-9.569-6.46-15.054-5.73-5.303.671-10.544 4.267-12.738 9.204-1.402 3.23-1.646 6.765-1.158 10.178.914 6.217 4.144 11.886 8.654 16.213 1.28 1.219 3.23-.731 1.95-1.95-3.778-3.657-6.582-8.229-7.679-13.41-.122-.426-.183-.853-.244-1.218 0-.061 0-.183-.06-.244-.062-.366.06.305 0-.06 0-.184-.062-.428-.062-.61-.06-.549-.122-1.158-.122-1.707 0-1.219.122-2.377.366-3.535.488-2.255 1.585-4.327 3.17-5.912.792-.792 1.401-1.22 2.194-1.829 1.097-.731 2.194-1.34 3.474-1.767 2.925-.975 5.973-.853 8.837.06 2.134.671 3.962 1.768 5.425 3.292.792.792 1.219 1.341 1.828 2.377.244.366.427.792.61 1.22.06.121.122.182.122.304.122.305-.061-.183.06.122.062.183.184.426.245.61.243.73.487 1.462.609 2.254 0 .183.061.305.061.488-.061-.488 0 0 0 .122.06.487.06.975.06 1.402.123 1.706 2.926 1.706 2.926-.122z" fill="#FFF"/><path d="M29.847 39.242c-.06 2.62.854 5.241 2.134 7.497 1.828 3.29 4.754 5.85 8.35 6.948 2.803.853 5.607.731 8.532.426.732-.06 1.402-.609 1.402-1.401 0-.732-.61-1.463-1.402-1.402-2.377.244-4.754.426-6.948-.122-.975-.244-1.645-.488-2.377-.853-.365-.183-.731-.427-1.097-.61-.183-.122-.305-.244-.487-.305-.122-.06-.183-.122-.244-.182-.061-.061-.061-.061 0 0-.061-.061-.122-.061-.122-.122a11.295 11.295 0 0 1-1.707-1.707c-.122-.122-.243-.305-.365-.427.182.183-.183-.243-.183-.304-.244-.305-.427-.67-.67-.976a18.348 18.348 0 0 1-.976-1.889c0-.06-.06-.122-.06-.183.121.305.06.122 0 .061-.062-.183-.123-.305-.184-.487-.122-.305-.183-.61-.304-.915-.183-.548-.305-1.097-.427-1.645 0-.061-.061-.488-.061-.183.06.305 0-.122 0-.183v-1.097c0-1.707-2.743-1.707-2.804.06zM7.906 24.31c.06-.123.122-.184.243-.305.122-.122.183-.244.244-.366s.305-.366 0 0c.061-.122.183-.183.244-.305.792-.975 1.707-1.95 2.62-2.864 1.403-1.341 2.622-2.317 4.206-3.353 1.89-1.219 3.901-2.255 5.973-2.986a29.23 29.23 0 0 1 7.619-1.585c1.158-.06 2.316-.06 3.413 0 .549 0 1.158.061 1.707.061.304 0 .67.061.975.122.183 0 .366.06.548.06.366.062-.304-.06.061 0 .122 0 .244 0 .305.062 1.829.305 3.657.731 5.425 1.34 5.241 1.83 9.934 5.547 13.287 10.118.426.61 1.219.915 1.889.488.61-.366.914-1.28.488-1.89-3.292-4.57-7.62-8.289-12.8-10.544a31.023 31.023 0 0 0-10.97-2.56c-3.597-.182-7.315.061-10.789 1.037-4.51 1.28-8.654 3.656-12.19 6.704-1.767 1.585-3.535 3.352-4.814 5.363-1.037 1.524 1.34 2.926 2.316 1.402z" fill="#FFF"/><path d="M12.294 49.786c-.67-1.646-1.036-3.352-1.34-5.12-.062-.365-.123-.792-.184-1.158 0-.06-.06-.426 0 0 0-.122 0-.183-.06-.304 0-.244-.062-.488-.062-.732-.122-.914-.122-1.828-.122-2.804 0-.975.061-2.01.183-2.986 0-.122 0-.244.061-.366-.06.305 0-.06 0-.122.061-.243.061-.487.122-.731.122-.549.183-1.097.366-1.585.61-2.194 1.34-3.961 2.682-5.85a16.53 16.53 0 0 1 2.194-2.5c.975-.914 1.95-1.706 3.108-2.438 2.865-1.828 6.156-3.108 9.57-3.413 3.717-.366 7.435.183 10.91 1.524 2.742 1.036 5.24 2.62 7.252 4.754 1.097 1.097 1.95 2.377 2.743 3.718.426.731.853 1.524 1.219 2.316.183.427.426.853.61 1.28-.123-.244-.062-.061 0 0 .182.426.304.853.426 1.28.122.365.183.731.244 1.097.06.183.06.426.122.67 0 .122.06.244.06.366-.06-.366 0 .183 0 .244.061.487.061.975.061 1.524v1.462c0-.122 0-.122 0 0-.182 1.22-.426 1.89-1.158 2.865l-.121.183-.305.304c-.183.183-.366.366-.488.427-.61.488-1.34.792-2.072.975-1.585.488-3.413.366-4.937-.426a6.048 6.048 0 0 1-2.62-2.621 4.422 4.422 0 0 1-.306-.732 2.166 2.166 0 0 1-.121-.609c-.061-.244-.244-.731 0-.183-.122-.305 0-.731-.061-1.036 0-.488-.122-.975-.183-1.524-1.341-6.704-10.91-8.776-15.237-3.779-3.292 3.78-2.378 9.326-.61 13.592 2.011 4.937 5.851 8.838 10.605 11.215 1.524.792 3.17 1.402 4.815 1.95 1.707.549 2.438-2.133.732-2.682-2.926-.975-5.913-2.377-8.229-4.327-1.95-1.585-3.29-3.291-4.51-5.425l-.731-1.462-.061-.122c-.061-.122-.122-.244-.122-.305-.122-.244-.183-.488-.244-.731a19.297 19.297 0 0 1-.731-2.682c-.061-.427-.122-.792-.183-1.158 0-.122 0-.183-.061-.244-.061-.305 0 .122 0 0 0-.183-.061-.366-.061-.548-.183-1.524.06-3.048.853-4.389 1.707-2.803 5.06-3.291 7.863-2.133 1.036.427 2.011 1.158 2.62 2.133.732 1.158.671 2.438.854 3.84.06.366 0 .122 0 .06 0 .184.06.306.06.489.062.182.062.426.123.609.122.427.304.914.487 1.28.183.427.488.914.793 1.28a8.85 8.85 0 0 0 4.632 3.17c3.291.974 7.314.121 9.569-2.56 2.742-3.292 2.438-8.107 1.158-12.008-.853-2.56-2.316-4.997-3.962-7.07-1.828-2.377-4.144-4.388-6.826-5.79-6.948-3.657-15.298-4.144-22.43-.853-4.936 2.255-9.203 6.095-11.336 11.154-1.646 3.9-2.133 8.228-1.707 12.494.244 2.56.732 5.12 1.585 7.558.061.122.122.244.122.366.305.73.914 1.218 1.707.975.365-.061.975-.915.67-1.646zm3.108-40.287c.549-.366 1.097-.61 1.707-.915.305-.121.548-.243.853-.426.061-.061.549-.244.366-.183-.183.122.122-.061.122-.061.122-.061.244-.122.426-.183a30.05 30.05 0 0 1 2.5-.853A34.578 34.578 0 0 1 36.368 5.72c3.9.61 7.74 1.89 11.215 3.657.67.365 1.523.183 1.889-.488.366-.61.183-1.585-.488-1.89-6.095-3.047-12.92-4.692-19.808-4.266-4.45.305-8.777 1.341-12.8 3.17-.792.365-1.584.731-2.316 1.219-.609.426-.914 1.219-.487 1.89.305.609 1.219.913 1.828.487z" fill="#FFF"/></g></svg>
